X:66
T: Die Hauptmannstochter
N: Q0101A
O: Mitteleuropa, Deutschland (BRD) , Hessen, Nassau
R: Ballade, Frau in Maennerkleidung, Soldat, Moral, Mord
M: 6/8
L: 1/16
K: G
D2 | B3AG2G2A2B2 | B2A2z6
A2 | A4d2d4c2 | B6z4
d2 | d2c2BBB2A2G2 | c6-c2d2
e2 | e2d2B2d2c2Ac | B6z4

